X:152
T:Russells Triumph Thursday in the Morning
C:No 152 William Clarke of Feltwell
M:4/4
L:1/8
K:G
G>A B>c d3d| e2 d>c B3c| d2 G>G G2 A>B| A>GA>B A3 G|
G>AB>c d3d|e2 f>g d3 d| e>dc>B A>GF>G| E3 D D3 A|A>GF>G A3 B |
A>G F>G A3 B| A>G F>G A3 B |A>G F>G A3 B |e>^de>f g2 f>e|e2 B>c d2 A>B |
c2 G>A B>dc>B | A3G G2 B>c| d2 A>B c2 G>A | B>d c>B A3 G|G4||

